X:1
T:My Future Just Passed
T:My Future Just Passed
C:George Marion Jr., Richard Whiting
Z:All Rights Reserved
L:1/8
M:4/4
K:Eb
V:1 treble nm="Voice"
%%MIDI program 52
V:1
"Ebmaj7" B B2 G"Cm7" E3 E |"Fm7" c2 AG"Bb7" FE D2 |"Ebmaj7" B B2 G"Cm7" E3 E | %3
w: There goes the girl I|dreamed all through school a- bout,|there goes the girl I'll|
"Fm7" e2 cB"Bb7" AG F2 |"Ebmaj7" E E2 D"G7" F F2 E |"C7" G G2 C"Db7" B2 A2 | %6
w: now be a fool a- bout.|Ring down the cur- tain, I'm|cer- tain at pres- ent|
"Ebmaj7" z2 GF-"Bb7" FE F2 |"Ebmaj7""Fm7" G6"Bb7" z2 |"Ebmaj7" B B2 G"Cm7" E3 E | %9
w: my fu- * ture just|passed.|Don't ev- en know if|
"Fm7" c2 AG"Bb7" FE D2 |"Ebmaj7" B B2 G"Cm7" E3 E |"Fm7" e2 cB"Bb7" AG F2 | %12
w: she has been spok- en for.|If she is tied, the|ties must be brok- en, for|
"Ebmaj7" E E2 D"G7" F F2 E |"C7" G G2 C"Db7" B2 A2 |"Ebmaj7" z2 GF-"Bb7" FE F2 | %15
w: life can't be that way: to|wake me, then break me,|my fu- * ture just|
"Ebmaj7""Adim7" E6"D7" z2 |"Gmaj7" d d2 B G2 D2 |"Adim7" E E2 D"D7" B2 =A2 |"Gm7" G B2 G B2 G2 | %19
w: passed!|Stars in the blue, tho'|you're at a dis- tane,|you can at least do|
"Am7""D7" =B8 |"Gmaj7" d d2 =B G2 D2 |"Am7" =E E2 D"D7" ^F2 E2 |"Am7" =E E2 D"D7" =B2 B2 | %23
w: this:|some- times a boy en-|count- ers re- sis- tance,|help me to win this|
"Gmaj7" G6"Fm7""Bb7" z2 |"Ebmaj7" B B2 G"Cm7" E3 E |"Fm7" c2 AG"Bb7" FE D2 | %26
w: miss.|Here are my arms, may|she find il- lu- sion there.|
"Ebmaj7" B B2 G"Cm7" E3 E |"Fm7" e2 cB"Bb7" AG F2 |"Ebmaj7" E E2 D"G7" F F2 E |"C7" G G2 C"F7" c4 | %30
w: Look in my heart, there|is no don- fu- sion there,|now that I'm lov- ing, I'm|liv- ing at last,|
"Ebmaj7" z2 GF-"Bb7" FE F2 |"Ebmaj7" E6 z2 |] %32
w: my fut- * ure just|passed.|

